X:457
T:Bonnie Galloway
S:Mainly Alex Green
Z:Nigel Gatherer
M:3/4
L:1/4
K:G
B2F | A2G | EG2 | D3 | D2E | G2B | A2B | A3 |
B2F | A2G | EG2 | D3 | D2E | G2B | A2G | G3 |
d2d | B2G | e2G | d3 | d2d | B2A | GFG | A3 |
B2F | A2G | EG2 | D3 | D2E | G2B | A2G | G3 |]
<end>
<start>
